src/assets/biolive.svg

<?xml version="1.0" encoding="UTF-8"?>
<svg width="128px" height="70px" viewBox="0 0 128 70" version="1.1" xmlns="http://www.w3.org/2000/svg" xmlns:xlink="http://www.w3.org/1999/xlink">
    <title>Logo</title>
    <defs>
        <polygon id="path-1" points="0.548696415 0.177464286 9.73928571 0.177464286 9.73928571 9.36862501 0.548696415 9.36862501"></polygon>
        <polygon id="path-3" points="0.632956216 0.27 9.81967373 0.27 9.81967373 45 0.632956216 45"></polygon>
        <polygon id="path-5" points="0 0.177464286 9.89871155 0.177464286 9.89871155 9.36862501 0 9.36862501"></polygon>
        <polygon id="path-7" points="0.000217241379 0.129235294 20.9017345 0.129235294 20.9017345 12.4354941 0.000217241379 12.4354941"></polygon>
        <polygon id="path-9" points="0.44488 0.129235294 3.27848 0.129235294 3.27848 12.4354176 0.44488 12.4354176"></polygon>
        <polygon id="path-11" points="0.587093548 0.129235294 22.8785452 0.129235294 22.8785452 12.4354941 0.587093548 12.4354941"></polygon>
        <polygon id="path-13" points="0.38742 0.129235294 21.5543533 0.129235294 21.5543533 12.4352647 0.38742 12.4352647"></polygon>
        <polygon id="path-15" points="0.063375 0.129235294 2.719875 0.129235294 2.719875 12.4354176 0.063375 12.4354176"></polygon>
        <polygon id="path-17" points="0.236592593 0.122055556 19.8128889 0.122055556 19.8128889 12.2777778 0.236592593 12.2777778"></polygon>
        <polygon id="path-19" points="0.326006452 0.129235294 22.3708387 0.129235294 22.3708387 12.4354176 0.326006452 12.4354176"></polygon>
    </defs>
    <g id="Home" stroke="none" stroke-width="1" fill="none" fill-rule="evenodd">
        <g id="Option-13---Home" transform="translate(-658.000000, -5038.000000)">
            <g id="Footer" transform="translate(0.000000, 4432.000000)">
                <g id="Logo" transform="translate(658.000000, 606.000000)">
                    <g id="Logo-Icon" transform="translate(41.000000, 0.000000)">
                        <g id="Group-3" transform="translate(35.000000, 17.000000)">
                            <mask id="mask-2" fill="white">
                                <use xlink:href="#path-1"></use>
                            </mask>
                            <g id="Clip-2"></g>
                            <path d="M8.39307143,1.52371429 C6.59878571,-0.271285714 3.68878571,-0.271285714 1.8945,1.52371429 C0.100214286,3.31871429 0.100214286,6.228 1.89378571,8.023 C3.68878571,9.81728571 6.59878571,9.81728571 8.39307143,8.02228571 C10.1880714,6.228 10.1880714,3.31871429 8.39307143,1.52371429" id="Fill-1" fill="#040528" mask="url(#mask-2)"></path>
                        </g>
                        <g id="Group-6" transform="translate(17.000000, 0.000000)">
                            <mask id="mask-4" fill="white">
                                <use xlink:href="#path-3"></use>
                            </mask>
                            <g id="Clip-5"></g>
                            <path d="M8.5835,37.0123525 C5.74564286,33.878582 5.74564286,29.0097295 8.5835,25.8766967 L8.57635714,25.8774344 C10.2313571,24.0553033 10.2313571,21.2173525 8.57635714,19.3937459 L8.58278571,19.3937459 C5.74564286,16.2599754 5.74564286,11.3918607 8.58278571,8.25809016 L8.57635714,8.25809016 C10.2649286,6.39759836 10.2356429,3.47702459 8.47564286,1.66005738 C6.68135714,-0.193795082 3.77135714,-0.193795082 1.97707143,1.66005738 C0.2185,3.47702459 0.187785714,6.39759836 1.87635714,8.25809016 L1.87064286,8.25809016 C4.70707143,11.3925984 4.70707143,16.2599754 1.87064286,19.3937459 L1.87635714,19.3937459 C0.222071429,21.2173525 0.221357143,24.0553033 1.87635714,25.8774344 L1.87064286,25.8766967 C4.70707143,29.0097295 4.70707143,33.878582 1.86992857,37.0123525 L1.87635714,37.0123525 C0.187785714,38.873582 0.217071429,41.7941557 1.97635714,43.6096475 C3.77207143,45.4635 6.68135714,45.4635 8.47564286,43.6096475 C10.2356429,41.7941557 10.2649286,38.873582 8.57635714,37.0123525 L8.5835,37.0123525 Z" id="Fill-4" fill="#040528" mask="url(#mask-4)"></path>
                        </g>
                        <path d="M34.7886591,28.0454153 C32.0084012,24.9244145 32.0084012,20.0761366 34.7879594,16.9551357 L34.7809615,16.9551357 C36.43666,15.1029599 36.4072689,12.194287 34.6836909,10.3847237 C32.9251235,8.53842543 30.0748867,8.53842543 28.3156195,10.3847237 C26.5934411,12.194287 26.5633502,15.1029599 28.2176492,16.9551357 L28.2120509,16.9551357 C30.9902095,20.0761366 30.9902095,24.9244145 28.2120509,28.0454153 L28.2176492,28.0454153 C26.5633502,29.8975911 26.5934411,32.8069987 28.3156195,34.6158273 C30.0748867,36.4613909 32.9251235,36.4613909 34.6836909,34.6158273 C36.4072689,32.8069987 36.43666,29.8975911 34.7809615,28.0454153 L34.7886591,28.0454153 Z" id="Fill-7" fill="#040528"></path>
                        <path d="M16.7818949,28.0446806 L16.788893,28.0439459 C14.0092807,24.9244145 14.0092807,20.0754019 16.788893,16.9551357 L16.7818949,16.9551357 C18.4362261,15.1029599 18.4075343,12.194287 16.6832229,10.3847237 C14.9260209,8.53842543 12.074329,8.53842543 10.3164272,10.3847237 C8.59281564,12.194287 8.56342397,15.1029599 10.218455,16.9544011 L10.2114569,16.9551357 C12.9910692,20.0754019 12.9910692,24.9244145 10.2121567,28.0446806 L10.218455,28.0446806 C8.56412377,29.8975911 8.59281564,32.8055293 10.3164272,34.6158273 C12.074329,36.4613909 14.9260209,36.4613909 16.6832229,34.6158273 C18.4075343,32.8055293 18.4362261,29.8975911 16.7818949,28.0446806" id="Fill-9" fill="#040528"></path>
                        <g id="Group-13" transform="translate(0.000000, 17.000000)">
                            <mask id="mask-6" fill="white">
                                <use xlink:href="#path-5"></use>
                            </mask>
                            <g id="Clip-12"></g>
                            <path d="M8.449,1.52371429 C6.51592308,-0.271285714 3.38207692,-0.271285714 1.449,1.52371429 C-0.483307692,3.31871429 -0.483307692,6.228 1.449,8.023 C3.38207692,9.81728571 6.51592308,9.81728571 8.44823077,8.02228571 C10.3820769,6.228 10.3820769,3.31871429 8.449,1.52371429" id="Fill-11" fill="#040528" mask="url(#mask-6)"></path>
                        </g>
                    </g>
                    <g transform="translate(0.000000, 56.000000)">
                        <g id="Group-3">
                            <mask id="mask-8" fill="white">
                                <use xlink:href="#path-7"></use>
                            </mask>
                            <g id="Clip-2"></g>
                            <path d="M17.4005276,9.72537647 C17.9349414,9.72537647 18.415769,9.24590588 18.415769,8.68155294 C18.415769,8.08814118 17.9349414,7.63772941 17.4005276,7.63772941 L2.56583793,7.63772941 L2.56583793,9.02031765 C2.56583793,9.38737647 2.91342414,9.72537647 3.39425172,9.72537647 L17.4005276,9.72537647 Z M1.28266552,0.129082353 L17.2933552,0.129082353 C19.2709759,0.129082353 20.9017345,1.82214118 20.9017345,3.91055294 C20.9017345,4.84272941 20.5809414,5.66172941 20.0725966,6.3102 C20.5809414,6.93114118 20.9017345,7.77767059 20.9017345,8.68155294 C20.9017345,10.7699647 19.2709759,12.4354941 17.2933552,12.4354941 L3.26101034,12.4354941 C1.68383793,12.4354941 0.000217241379,10.9680235 0.000217241379,8.73814118 L0.000217241379,6.19778824 C0.000217241379,5.18149412 0.534631034,4.92761176 1.71063103,4.92761176 L17.4265966,4.92761176 C17.9610103,4.92761176 18.415769,4.50396471 18.415769,3.91055294 C18.415769,3.3462 17.9349414,2.83843529 17.4005276,2.83843529 L1.28266552,2.83843529 C0.587493103,2.83843529 0.000217241379,2.21749412 0.000217241379,1.48414118 C0.000217241379,0.750023529 0.587493103,0.129082353 1.28266552,0.129082353 L1.28266552,0.129082353 Z" id="Fill-1" fill="#040528" mask="url(#mask-8)"></path>
                        </g>
                        <g id="Group-6" transform="translate(23.000000, 0.000000)">
                            <mask id="mask-10" fill="white">
                                <use xlink:href="#path-9"></use>
                            </mask>
                            <g id="Clip-5"></g>
                            <path d="M1.86168,12.4354176 C1.09368,12.4354176 0.44488,11.8144765 0.44488,11.0803588 L0.44488,1.48406471 C0.44488,0.749947059 1.09368,0.129005882 1.86168,0.129005882 C2.62968,0.129005882 3.27848,0.749947059 3.27848,1.48406471 L3.27848,11.0803588 C3.27848,11.8144765 2.62968,12.4354176 1.86168,12.4354176" id="Fill-4" fill="#040528" mask="url(#mask-10)"></path>
                        </g>
                        <g id="Group-9" transform="translate(29.000000, 0.000000)">
                            <mask id="mask-12" fill="white">
                                <use xlink:href="#path-11"></use>
                            </mask>
                            <g id="Clip-8"></g>
                            <path d="M20.3314806,6.28190588 C20.3314806,4.92761176 19.7839323,2.83843529 17.2643194,2.83843529 L6.20057742,2.83843529 C3.68170645,2.83843529 3.13341613,4.92761176 3.13341613,6.28190588 C3.13341613,7.63696471 3.68170645,9.72537647 6.20057742,9.72537647 L17.2643194,9.72537647 C19.7839323,9.72537647 20.3314806,7.63696471 20.3314806,6.28190588 M17.8400613,12.4354941 L5.35180323,12.4354941 C2.36699677,12.2657294 0.587093548,9.07614118 0.587093548,6.28190588 C0.587093548,3.43108235 2.47680323,0.129082353 5.62557742,0.129082353 L18.1138355,0.129082353 C21.0986419,0.298082353 22.8785452,3.48767059 22.8785452,6.28190588 C22.8785452,9.13272941 20.9895774,12.4354941 17.8400613,12.4354941" id="Fill-7" fill="#040528" mask="url(#mask-12)"></path>
                        </g>
                        <g id="Group-12" transform="translate(54.000000, 0.000000)">
                            <mask id="mask-14" fill="white">
                                <use xlink:href="#path-13"></use>
                            </mask>
                            <g id="Clip-11"></g>
                            <path d="M0.38742,8.68132353 L0.38742,1.48391176 C0.38742,0.749794118 0.982886667,0.128852941 1.68615333,0.128852941 C2.36302,0.128852941 2.98562,0.749794118 2.98562,1.48391176 L2.98562,8.68132353 C2.98562,9.24567647 3.47328667,9.72514706 4.01448667,9.72514706 L20.25562,9.72514706 C20.9588867,9.72514706 21.5543533,10.3468529 21.5543533,11.0802059 C21.5543533,11.8150882 20.9588867,12.4352647 20.25562,12.4352647 L4.09588667,12.4352647 C2.09242,12.4352647 0.38742,10.7697353 0.38742,8.68132353" id="Fill-10" fill="#040528" mask="url(#mask-14)"></path>
                        </g>
                        <g id="Group-15" transform="translate(78.000000, 0.000000)">
                            <mask id="mask-16" fill="white">
                                <use xlink:href="#path-15"></use>
                            </mask>
                            <g id="Clip-14"></g>
                            <path d="M1.391625,12.4354176 C0.671625,12.4354176 0.063375,11.8144765 0.063375,11.0803588 L0.063375,1.48406471 C0.063375,0.749947059 0.671625,0.129005882 1.391625,0.129005882 C2.111625,0.129005882 2.719875,0.749947059 2.719875,1.48406471 L2.719875,11.0803588 C2.719875,11.8144765 2.111625,12.4354176 1.391625,12.4354176" id="Fill-13" fill="#040528" mask="url(#mask-16)"></path>
                        </g>
                        <g id="Group-18" transform="translate(83.000000, 1.000000)">
                            <mask id="mask-18" fill="white">
                                <use xlink:href="#path-17"></use>
                            </mask>
                            <g id="Clip-17"></g>
                            <path d="M17.4891852,0.601611111 C17.7351111,0.308388889 18.1180741,0.122055556 18.5002963,0.122055556 C19.2114074,0.122055556 19.8128889,0.707777778 19.8128889,1.40111111 C19.8128889,1.69505556 19.7306667,1.96155556 19.5395556,2.17461111 L19.5121481,2.20133333 L12.8958519,10.8918333 C12.2395556,11.7180556 11.2002963,12.2777778 10.0247407,12.2777778 C8.93066667,12.2777778 7.91955556,11.7707778 7.26325926,10.9705556 L0.619555556,2.30677778 C0.401037037,2.067 0.236592593,1.74777778 0.236592593,1.40111111 C0.236592593,0.707777778 0.838074074,0.122055556 1.54844444,0.122055556 C1.95881481,0.122055556 2.34177778,0.308388889 2.5877037,0.628333333 L8.95807407,8.91872222 C9.204,9.21194444 9.61437037,9.63877778 10.0247407,9.63877778 C10.4351111,9.63877778 10.8447407,9.18522222 11.0632593,8.91872222 L17.4891852,0.601611111 Z" id="Fill-16" fill="#040528" mask="url(#mask-18)"></path>
                        </g>
                        <g id="Group-21" transform="translate(105.000000, 0.000000)">
                            <mask id="mask-20" fill="white">
                                <use xlink:href="#path-19"></use>
                            </mask>
                            <g id="Clip-20"></g>
                            <path d="M3.66694194,12.4354176 C2.05100645,12.4354176 0.326006452,10.9679471 0.326006452,8.73806471 L0.326006452,6.19771176 C0.326006452,5.18141765 0.873554839,4.92753529 2.07845806,4.92753529 L20.4547161,4.92753529 C21.1662323,4.92753529 21.7686839,5.54771176 21.7686839,6.28182941 C21.7686839,7.01594706 21.1662323,7.63765294 20.4547161,7.63765294 L2.95468387,7.63765294 L2.95468387,9.02024118 C2.95468387,9.3873 3.31155484,9.7253 3.8042,9.7253 L21.0564258,9.7253 C21.7686839,9.7253 22.3711355,10.3470059 22.3711355,11.0803588 C22.3711355,11.8144765 21.7686839,12.4354176 21.0564258,12.4354176 L3.66694194,12.4354176 Z M1.64071613,0.129005882 L21.0564258,0.129005882 C21.7686839,0.129005882 22.3711355,0.749947059 22.3711355,1.48406471 C22.3711355,2.21741765 21.7686839,2.83835882 21.0564258,2.83835882 L1.64071613,2.83835882 C0.928458065,2.83835882 0.326006452,2.21741765 0.326006452,1.48406471 C0.326006452,0.749947059 0.928458065,0.129005882 1.64071613,0.129005882 L1.64071613,0.129005882 Z" id="Fill-19" fill="#040528" mask="url(#mask-20)"></path>
                        </g>
                    </g>
                </g>
            </g>
        </g>
    </g>
</svg>

<svg xmlns="http://www.w3.org/2000/svg" xmlns:xlink="http://www.w3.org/1999/xlink" viewBox="0 0 128 70">
  <g fill="none" fill-rule="evenodd">
    <path transform="translate(76 17)"  d="M8.4 1.5A4.6 4.6 0 101.9 8a4.6 4.6 0 006.5-6.5" />
    <path transform="translate(58)"  d="M8.6 37a8.3 8.3 0 010-11.1 4.9 4.9 0 000-6.5 8.3 8.3 0 010-11.1 4.9 4.9 0 00-.1-6.6 4.5 4.5 0 00-6.5 0 4.9 4.9 0 00-.1 6.6c2.8 3 2.8 8 0 11a4.9 4.9 0 000 6.6c2.8 3.1 2.8 8 0 11.1a4.9 4.9 0 000 6.6 4.5 4.5 0 006.6 0 4.9 4.9 0 000-6.6z" />
    <path  d="M75.8 28a8.4 8.4 0 010-11 4.9 4.9 0 00-.1-6.6 4.4 4.4 0 00-6.4 0 4.9 4.9 0 000 6.6c2.7 3 2.7 8 0 11a4.9 4.9 0 000 6.6 4.4 4.4 0 006.4 0 4.9 4.9 0 000-6.6zM57.8 28a8.4 8.4 0 010-11 4.9 4.9 0 00-.1-6.6 4.4 4.4 0 00-6.4 0 4.9 4.9 0 000 6.6c2.7 3 2.7 8 0 11a4.9 4.9 0 000 6.6 4.4 4.4 0 006.4 0 4.9 4.9 0 000-6.6"/>
    <path transform="translate(41 17)"  d="M8.4 1.5c-1.9-1.8-5-1.8-7 0C-.5 3.3-.5 6.2 1.4 8c2 1.8 5.1 1.8 7 0 2-1.8 2-4.7 0-6.5" />
    <path transform="translate(0 56)"  d="M17.4 9.7c.5 0 1-.5 1-1 0-.6-.5-1-1-1H2.6V9c0 .4.3.7.8.7h14zM1.3.1h16c2 0 3.6 1.7 3.6 3.8 0 1-.3 1.8-.8 2.4.5.6.8 1.5.8 2.4 0 2-1.6 3.7-3.6 3.7h-14C1.7 12.4 0 11 0 8.7V6.2c0-1 .5-1.3 1.7-1.3h15.7c.6 0 1-.4 1-1s-.5-1-1-1H1.3C.6 2.8 0 2.1 0 1.4S.6 0 1.3 0z" />
    <path transform="translate(23 56)"  d="M1.9 12.4c-.8 0-1.5-.6-1.5-1.3V1.5C.4.7 1.1 0 2 0c.7 0 1.4.6 1.4 1.4V11c0 .7-.7 1.3-1.4 1.3" />
    <path transform="translate(29 56)"  d="M20.3 6.3c0-1.4-.5-3.5-3-3.5H6.2c-2.5 0-3 2.1-3 3.5 0 1.3.5 3.4 3 3.4h11c2.6 0 3.1-2 3.1-3.4m-2.5 6.1H5.4C2.4 12.3.6 9.1.6 6.3.6 3.4 2.5 0 5.6 0h12.5c3 .2 4.8 3.4 4.8 6.2 0 2.8-2 6.1-5 6.1" />
    <path transform="translate(54 56)"  d="M.4 8.7V1.5C.4.7 1 0 1.7 0 2.4.1 3 .7 3 1.5v7.2c0 .5.5 1 1 1h16.3c.7 0 1.3.6 1.3 1.4 0 .7-.6 1.3-1.3 1.3H4c-2 0-3.7-1.6-3.7-3.7" />
    <path transform="translate(78 56)"  d="M1.4 12.4c-.7 0-1.3-.6-1.3-1.3V1.5C0 .7.7 0 1.4 0c.7 0 1.3.6 1.3 1.4V11c0 .7-.6 1.3-1.3 1.3" />
    <path transform="translate(83 57)"  d="M17.5.6c.2-.3.6-.5 1-.5.7 0 1.3.6 1.3 1.3 0 .3 0 .6-.3.8L13 10.9c-.7.8-1.7 1.4-2.9 1.4-1 0-2-.5-2.7-1.3L.6 2.3c-.2-.2-.4-.6-.4-.9A1.3 1.3 0 012.6.6L9 9c.2.3.6.7 1 .7s.8-.4 1-.7L17.6.6z" />
    <path transform="translate(105 56)"  d="M3.7 12.4C2 12.4.3 11 .3 8.7V6.2c0-1 .6-1.3 1.8-1.3h18.4c.7 0 1.3.6 1.3 1.4 0 .7-.6 1.3-1.3 1.3H3V9c0 .4.3.7.8.7h17.3c.7 0 1.3.6 1.3 1.4 0 .7-.6 1.3-1.3 1.3H3.7zM1.7.1H21c.7 0 1.3.6 1.3 1.4 0 .7-.6 1.3-1.3 1.3H1.6C1 2.8.3 2.2.3 1.5.3.7 1 0 1.6 0z" />
  </g>
</svg>
